jsapp/svg-icons/remove.svg

<?xml version="1.0" encoding="UTF-8"?>
<svg width="40px" height="40px" viewBox="0 0 40 40" version="1.1" xmlns="http://www.w3.org/2000/svg" xmlns:xlink="http://www.w3.org/1999/xlink">
    <!-- Generator: Sketch 50.2 (55047) - http://www.bohemiancoding.com/sketch -->
    <title>Icons/remove</title>
    <desc>Created with Sketch.</desc>
    <defs>
        <path d="M20,12 C15.589,12 12,15.589 12,20 C12,24.411 15.589,28 20,28 C24.411,28 28,24.411 28,20 C28,15.589 24.411,12 20,12 M20,30 C14.486,30 10,25.514 10,20 C10,14.486 14.486,10 20,10 C25.514,10 30,14.486 30,20 C30,25.514 25.514,30 20,30 M24.707,16.7065 L23.293,15.2925 L20,18.5855 L16.707,15.2925 L15.293,16.7065 L18.586,19.9995 L15.293,23.2925 L16.707,24.7065 L20,21.4145 L23.293,24.7065 L24.707,23.2925 L21.414,19.9995 L24.707,16.7065 Z" id="path-1"></path>
    </defs>
    <g id="Icons/remove" stroke="none" stroke-width="1" fill="none" fill-rule="evenodd">
        <mask id="mask-2" fill="white">
            <use xlink:href="#path-1"></use>
        </mask>
        <use id="Mask" fill="#000000" xlink:href="#path-1"></use>
    </g>
</svg>

<svg height="40" viewBox="0 0 40 40" width="40" xmlns="http://www.w3.org/2000/svg"><path d="m20 12c-4.411 0-8 3.589-8 8s3.589 8 8 8 8-3.589 8-8-3.589-8-8-8m0 18c-5.514 0-10-4.486-10-10s4.486-10 10-10 10 4.486 10 10-4.486 10-10 10m4.707-13.2935-1.414-1.414-3.293 3.293-3.293-3.293-1.414 1.414 3.293 3.293-3.293 3.293 1.414 1.414 3.293-3.292 3.293 3.292 1.414-1.414-3.293-3.293z" fill-rule="evenodd"/></svg>
